X:19223
T:Yorkshire March,The. BC.23
M:2/4
L:1/8
Q:160
S:Benjamin Cooke MS.circa 1770, F.Kidson Coll.
R:March
O:England
A:x
Z:vmp.John Bagnall
K:G
G/A/ | BG- GA/B/ | cA- A(d/c/) | BA/G/ AG/F/ | G3 :|!
|:B/c/ | dd- dc/d/ | ec "tr"c2 | ee- ef/g/ | fe/f/ "tr"d>c |!
 BG- GA/B/ | cA- Ad/c/ | BA/G/ AG/F/ | G6 :|]
